X: 38143
T: Sporting Nell
R: reel
M: 4/4
K: Dmixolydian
|:A ~D3 A4-|A2AG EFGE|A ~D3 A4|ABAG E2D2:|
|:efge defg|a2ag e2d2|efge d4-|d2 AG E2D2:|

